;FLAVOR:Marlin
;TIME:1987
;Filament used: 1.77396m
;Layer height: 0.24
;MINX:100.629
;MINY:112.003
;MINZ:0.2
;MAXX:129.371
;MAXY:137.997
;MAXZ:70.04
;Generated with Cura_SteamEngine main
M82 ;absolute extrusion mode
M104 S200 ;Set Hotend Temperature
M140 S60 ;Set Bed Temperature
G28 ;home
G90 ;absolute positioning
G1 X-10 Y-10 F3000 ;Move to corner 
G1 Z0 F1800 ;Go to zero offset
M109 S200 ;Wait for Hotend Temperature
M190 S60 ;Wait for Bed Temperature
G92 E0 ;Zero set extruder position
G1 E20 F200 ;Feed filament to clear nozzle
G92 E0 ;Zero set extruder position
G92 E0
G92 E0
G1 F3600 E-5
;LAYER_COUNT:292
;LAYER:0
M107
G0 F1440 X107.083 Y113.089 Z0.2
G0 X106.002 Y114.593
;TYPE:SKIRT
G1 F3600 E0
G1 F1080 X106.375 Y113.967 E0.02424
G1 X106.698 Y113.503 E0.04304
G1 X107.083 Y113.089 E0.06184
G1 X107.523 Y112.733 E0.08067
G1 X108.008 Y112.443 E0.09946
G1 X108.529 Y112.225 E0.11825
G1 X109.076 Y112.082 E0.13705
G1 X109.753 Y112.014 E0.15968
G1 X110.507 Y112.003 E0.18476
G1 X119.544 Y112.003 E0.48534
G1 X120.245 Y112.013 E0.50865
G1 X120.808 Y112.061 E0.52745
G1 X121.359 Y112.188 E0.54625
G1 X121.887 Y112.392 E0.56508
G1 X122.38 Y112.667 E0.58386
G1 X122.83 Y113.01 E0.60268
G1 X123.227 Y113.412 E0.62147
G1 X123.623 Y113.964 E0.64406
G1 X124.023 Y114.635 E0.67004
G1 X128.539 Y122.459 E0.97051
G1 X128.868 Y123.047 E0.99292
G1 X129.108 Y123.558 E1.0117
G1 X129.274 Y124.099 E1.03052
G1 X129.362 Y124.657 E1.04931
G1 X129.371 Y125.223 E1.06813
G1 X129.3 Y125.783 E1.08691
G1 X129.15 Y126.329 E1.10574
G1 X128.867 Y126.954 E1.12856
G1 X128.5 Y127.609 E1.15353
G1 X124.009 Y135.39 E1.45234
G1 X123.626 Y136.033 E1.47724
G1 X123.303 Y136.497 E1.49604
G1 X122.918 Y136.911 E1.51484
G1 X122.478 Y137.266 E1.53365
G1 X121.993 Y137.556 E1.55244
G1 X121.471 Y137.775 E1.57127
G1 X120.924 Y137.918 E1.59008
G1 X120.247 Y137.986 E1.61271
G1 X119.493 Y137.997 E1.63779
G1 X110.456 Y137.997 E1.93836
G1 X109.755 Y137.987 E1.96168
G1 X109.192 Y137.939 E1.98047
G1 X108.641 Y137.812 E1.99928
G1 X108.113 Y137.608 E2.0181
G1 X107.62 Y137.333 E2.03688
G1 X107.17 Y136.99 E2.0557
G1 X106.773 Y136.588 E2.07449
G1 X106.376 Y136.036 E2.0971
G1 X105.964 Y135.343 E2.12392
G1 X101.463 Y127.544 E2.42341
G1 X101.134 Y126.957 E2.4458
G1 X100.893 Y126.445 E2.46462
G1 X100.726 Y125.905 E2.48342
G1 X100.638 Y125.347 E2.5022
G1 X100.629 Y124.781 E2.52103
G1 X100.7 Y124.22 E2.53984
G1 X100.849 Y123.675 E2.55863
G1 X101.132 Y123.049 E2.58148
G1 X101.5 Y122.391 E2.60656
G1 X106.002 Y114.593 E2.90604
G0 F1440 X106.345 Y114.797
G1 F1080 X106.718 Y114.171 E2.93028
G1 X107.026 Y113.732 E2.94811
G1 X107.396 Y113.344 E2.96595
G1 X107.82 Y113.015 E2.9838
G1 X108.287 Y112.752 E3.00162
G1 X108.789 Y112.562 E3.01947
G1 X109.455 Y112.418 E3.04214
G1 X110.512 Y112.403 E3.0773
G1 X119.538 Y112.403 E3.3775
G1 X120.239 Y112.413 E3.40082
G1 X120.774 Y112.461 E3.41869
G1 X121.295 Y112.587 E3.43651
G1 X121.791 Y112.79 E3.45434
G1 X122.252 Y113.064 E3.47218
G1 X122.668 Y113.403 E3.49002
G1 X123.122 Y113.903 E3.51249
G1 X123.677 Y114.835 E3.54857
G1 X128.19 Y122.654 E3.84884
G1 X128.519 Y123.242 E3.87125
G1 X128.745 Y123.728 E3.88907
G1 X128.896 Y124.243 E3.90692
G1 X128.97 Y124.774 E3.92476
G1 X128.964 Y125.31 E3.94258
G1 X128.878 Y125.84 E3.96044
G1 X128.669 Y126.489 E3.98312
G1 X128.154 Y127.409 E4.01819
G1 X123.665 Y135.185 E4.31682
G1 X123.282 Y135.828 E4.34171
G1 X122.974 Y136.267 E4.35955
G1 X122.604 Y136.656 E4.37741
G1 X122.181 Y136.985 E4.39523
G1 X121.713 Y137.247 E4.41307
G1 X121.212 Y137.438 E4.4309
G1 X120.546 Y137.582 E4.45356
G1 X119.488 Y137.597 E4.48876
G1 X110.462 Y137.597 E4.78896
G1 X109.761 Y137.587 E4.81228
G1 X109.226 Y137.539 E4.83015
G1 X108.705 Y137.413 E4.84797
G1 X108.209 Y137.21 E4.8658
G1 X107.748 Y136.936 E4.88364
G1 X107.332 Y136.597 E4.90149
G1 X106.878 Y136.097 E4.92395
G1 X106.31 Y135.143 E4.96088
G1 X101.812 Y127.348 E5.26021
G1 X101.483 Y126.761 E5.28259
G1 X101.256 Y126.275 E5.30043
G1 X101.104 Y125.761 E5.31826
G1 X101.03 Y125.23 E5.33609
G1 X101.036 Y124.693 E5.35395
G1 X101.122 Y124.164 E5.37178
G1 X101.328 Y123.517 E5.39436
G1 X101.846 Y122.591 E5.42965
G1 X106.345 Y114.797 E5.72897
G0 F1440 X106.689 Y115.002
G1 F1080 X107.062 Y114.376 E5.7532
G1 X107.354 Y113.964 E5.77
G1 X107.708 Y113.602 E5.78684
G1 X108.114 Y113.301 E5.80365
G1 X108.562 Y113.068 E5.82045
G1 X109.042 Y112.908 E5.83727
G1 X109.764 Y112.814 E5.86149
G1 X110.518 Y112.803 E5.88657
G1 X119.533 Y112.803 E6.18641
G1 X120.234 Y112.813 E6.20973
G1 X120.737 Y112.86 E6.22653
G1 X121.227 Y112.986 E6.24336
G1 X121.69 Y113.188 E6.26016
G1 X122.117 Y113.46 E6.277
G1 X122.495 Y113.795 E6.2938
G1 X122.936 Y114.374 E6.31801
G1 X123.33 Y115.035 E6.3436
G1 X127.841 Y122.849 E6.64369
G1 X128.17 Y123.437 E6.6661
G1 X128.381 Y123.897 E6.68294
G1 X128.517 Y124.384 E6.69975
G1 X128.575 Y124.886 E6.71656
G1 X128.553 Y125.391 E6.73337
G1 X128.452 Y125.886 E6.75018
G1 X128.169 Y126.563 E6.77458
G1 X127.807 Y127.209 E6.79921
G1 X123.321 Y134.981 E7.09768
G1 X122.938 Y135.624 E7.12257
G1 X122.646 Y136.036 E7.13937
G1 X122.292 Y136.398 E7.15621
G1 X121.886 Y136.699 E7.17302
G1 X121.438 Y136.932 E7.18981
G1 X120.958 Y137.092 E7.20664
G1 X120.236 Y137.186 E7.23086
G1 X119.482 Y137.197 E7.25594
G1 X110.467 Y137.197 E7.55578
G1 X109.766 Y137.187 E7.5791
G1 X109.263 Y137.14 E7.5959
G1 X108.773 Y137.014 E7.61273
G1 X108.31 Y136.812 E7.62953
G1 X107.883 Y136.54 E7.64637
G1 X107.505 Y136.205 E7.66317
G1 X107.064 Y135.626 E7.68737
G1 X106.657 Y134.943 E7.71382
G1 X102.161 Y127.153 E8.01297
G1 X101.832 Y126.566 E8.03535
G1 X101.62 Y126.106 E8.0522
G1 X101.483 Y125.62 E8.06899
G1 X101.425 Y125.117 E8.08583
G1 X101.447 Y124.612 E8.10265
G1 X101.548 Y124.117 E8.11945
G1 X101.83 Y123.44 E8.14384
G1 X102.193 Y122.791 E8.16857
G1 X106.689 Y115.002 E8.4677
G1 F3600 E3.4677
;MESH:??????.stl
G0 F1440 X108.883 Y116.272
G0 X109.823 Y116.814
G0 X105.636 Y125
G1 F3600 E8.4677
G0 F1440 X105.307 Y125.001
;TYPE:WALL-INNER
G1 F1080 X110.154 Y133.396 E8.79011
G1 X119.846 Y133.396 E9.11247
G1 X124.693 Y125.001 E9.43489
G1 X119.846 Y116.604 E9.75736
G1 X110.154 Y116.604 E10.07972
G1 X105.307 Y125.001 E10.40219
G0 F1440 X104.845 Y125.001
;TYPE:WALL-OUTER
G1 F1080 X109.923 Y133.796 E10.73997
G1 X120.077 Y133.796 E11.0777
G1 X125.155 Y125.001 E11.41548
G1 X120.077 Y116.204 E11.75331
G1 X109.923 Y116.204 E12.09104
G1 X104.845 Y125.001 E12.42887
G0 F1440 X104.945 Y125.174
G0 X105.636 Y125
G0 X110.587 Y133.097
G0 X110.587 Y133.215
;TYPE:SKIN
G1 F1080 X109.805 Y132.432 E12.46568
G1 X109.735 Y132.362
G0 F1440 X109.86 Y132.29
G0 X109.135 Y131.035
G0 X109.032 Y131.094
G1 F1080 X111.153 Y133.215 E12.56545
G0 F1440 X111.719 Y133.215
G1 F1080 X108.26 Y129.756 E12.72815
G1 X108.19 Y129.686
G0 F1440 X108.315 Y129.614
G0 X107.59 Y128.359
G0 X107.488 Y128.418
G1 F1080 X112.285 Y133.215 E12.95378
G0 F1440 X112.85 Y133.215
G1 F1080 X106.715 Y127.08 E13.24236
G1 X106.645 Y127.01
G0 F1440 X106.77 Y126.938
G0 X106.046 Y125.683
G0 X105.943 Y125.742
G1 F1080 X113.416 Y133.215 E13.59386
G0 F1440 X113.982 Y133.215
G1 F1080 X105.607 Y124.84 E13.9878
G0 F1440 X105.814 Y124.481
G1 F1080 X114.547 Y133.215 E14.39859
G0 F1440 X115.113 Y133.215
G1 F1080 X106.02 Y124.122 E14.8263
G0 F1440 X106.227 Y123.764
G1 F1080 X115.679 Y133.215 E15.27087
G0 F1440 X116.244 Y133.215
G1 F1080 X106.435 Y123.405 E15.73228
G0 F1440 X106.641 Y123.046
G1 F1080 X116.81 Y133.215 E16.2106
G0 F1440 X117.376 Y133.215
G1 F1080 X106.848 Y122.687 E16.7058
G0 F1440 X107.055 Y122.329
G1 F1080 X117.941 Y133.215 E17.21785
G0 F1440 X118.507 Y133.215
G1 F1080 X107.263 Y121.97 E17.74675
G0 F1440 X107.469 Y121.611
G1 F1080 X119.073 Y133.215 E18.29257
G0 F1440 X119.638 Y133.215
G1 F1080 X107.676 Y121.253 E18.85523
G0 F1440 X107.883 Y120.894
G1 F1080 X119.912 Y132.923 E19.42103
G0 F1440 X120.119 Y132.564
G1 F1080 X108.091 Y120.536 E19.98679
G0 F1440 X108.297 Y120.177
G1 F1080 X120.326 Y132.206 E20.5526
G0 F1440 X120.533 Y131.847
G1 F1080 X108.504 Y119.818 E21.11841
G0 F1440 X108.712 Y119.46
G1 F1080 X120.74 Y131.488 E21.68417
G0 F1440 X120.947 Y131.13
G1 F1080 X108.919 Y119.101 E22.24995
G0 F1440 X109.125 Y118.742
G1 F1080 X121.154 Y130.771 E22.81576
G0 F1440 X121.362 Y130.413
G1 F1080 X109.332 Y118.383 E23.38161
G0 F1440 X109.54 Y118.025
G1 F1080 X121.568 Y130.053 E23.94737
G0 F1440 X121.775 Y129.695
G1 F1080 X109.747 Y117.666 E24.51316
G0 F1440 X109.953 Y117.307
G1 F1080 X121.982 Y129.336 E25.07896
G0 F1440 X122.19 Y128.978
G1 F1080 X110.16 Y116.949 E25.6448
G0 F1440 X110.561 Y116.783
G1 F1080 X122.396 Y128.619 E26.2015
G0 F1440 X122.603 Y128.26
G1 F1080 X111.126 Y116.783 E26.74134
G0 F1440 X111.692 Y116.783
G1 F1080 X122.811 Y127.902 E27.26435
G0 F1440 X123.018 Y127.543
G1 F1080 X112.258 Y116.783 E27.77046
G0 F1440 X112.823 Y116.783
G1 F1080 X123.225 Y127.185 E28.25974
G0 F1440 X123.431 Y126.825
G1 F1080 X113.389 Y116.783 E28.73209
G0 F1440 X113.955 Y116.783
G1 F1080 X123.639 Y126.467 E29.18759
G0 F1440 X123.846 Y126.108
G1 F1080 X114.52 Y116.783 E29.62624
G0 F1440 X115.086 Y116.783
G1 F1080 X124.053 Y125.75 E30.04802
G0 F1440 X124.259 Y125.391
G1 F1080 X115.652 Y116.783 E30.45289
G0 F1440 X116.217 Y116.783
G1 F1080 X124.467 Y125.032 E30.84092
G1 X124.537 Y125.102
G0 F1440 X124.353 Y124.994
G0 X123.68 Y123.841
G0 X123.782 Y123.782
G1 F1080 X116.783 Y116.783 E31.17013
G0 F1440 X117.349 Y116.783
G1 F1080 X123.01 Y122.444 E31.43641
G1 X123.08 Y122.514
G0 F1440 X122.955 Y122.586
G0 X122.135 Y121.165
G0 X122.237 Y121.106
G1 F1080 X117.915 Y116.783 E31.63972
G0 F1440 X118.48 Y116.783
G1 F1080 X121.465 Y119.768 E31.78013
G1 X121.535 Y119.838
G0 F1440 X121.41 Y119.91
G0 X120.589 Y118.488
G0 X120.692 Y118.429
G1 F1080 X119.046 Y116.783 E31.85755
G0 F1440 X119.612 Y116.783
G1 F1080 X119.92 Y117.091 E31.87204
M104 S200
G0 F1440 X119.557 Y117.3
;MESH:NONMESH
G0 F600 X119.557 Y117.3 Z0.44
G0 F1440 X105.636 Y125
G0 X105.315 Y125.001
;TIME_ELAPSED:64.116751
;LAYER:1
M106 S255
;TYPE:WALL-INNER
;MESH:??????.stl
G1 F1290 X110.158 Y133.388 E32.25858
G1 X119.842 Y133.388 E32.64509
G1 X124.685 Y125.001 E33.03163
G1 X119.842 Y116.612 E33.41825
G1 X110.158 Y116.612 E33.80476
G1 X105.315 Y125.001 E34.19137
G0 F3120 X104.853 Y125.001
;TYPE:WALL-OUTER
G1 F1140 X109.927 Y133.788 E34.59635
G1 X120.073 Y133.788 E35.0013
G1 X125.147 Y125.001 E35.40628
G1 X120.073 Y116.212 E35.81133
G1 X109.927 Y116.212 E36.21627
G1 X104.853 Y125.001 E36.62132
G0 F3120 X104.953 Y125.174
G0 X105.645 Y125
G0 X110.614 Y116.911
G0 X110.614 Y116.791
;TYPE:SKIN
G1 F1440 X109.778 Y117.627 E36.66851
G1 X109.708 Y117.697
G0 F3120 X109.833 Y117.769
G0 X109.109 Y119.024
G0 X109.006 Y118.964
G1 F1440 X111.179 Y116.791 E36.79116
G0 F3120 X111.745 Y116.791
G1 F1440 X108.234 Y120.302 E36.98934
G1 X108.164 Y120.372
G0 F3120 X108.289 Y120.444
G0 X107.564 Y121.699
G0 X107.462 Y121.64
G1 F1440 X112.311 Y116.791 E37.26304
G0 F3120 X112.876 Y116.791
G1 F1440 X106.691 Y122.977 E37.61217
G1 X106.621 Y123.047
G0 F3120 X106.745 Y123.119
G0 X106.02 Y124.374
G0 X105.918 Y124.315
G1 F1440 X113.442 Y116.791 E38.03686
G0 F3120 X114.008 Y116.791
G1 F1440 X105.624 Y125.175 E38.51009
G0 F3120 X105.831 Y125.534
G1 F1440 X114.573 Y116.791 E39.00356
G0 F3120 X115.139 Y116.791
G1 F1440 X106.038 Y125.892 E39.51726
G0 F3120 X106.245 Y126.251
G1 F1440 X115.705 Y116.791 E40.05122
G0 F3120 X116.27 Y116.791
G1 F1440 X106.452 Y126.609 E40.60539
G0 F3120 X106.659 Y126.968
G1 F1440 X116.836 Y116.791 E41.17982
G0 F3120 X117.402 Y116.791
G1 F1440 X106.866 Y127.327 E41.77452
G0 F3120 X107.073 Y127.685
G1 F1440 X117.968 Y116.791 E42.38945
G0 F3120 X118.533 Y116.791
G1 F1440 X107.28 Y128.044 E43.02462
G0 F3120 X107.488 Y128.402
G1 F1440 X119.099 Y116.791 E43.68
G0 F3120 X119.665 Y116.791
G1 F1440 X107.695 Y128.761 E44.35563
G0 F3120 X107.902 Y129.119
G1 F1440 X119.917 Y117.104 E45.03381
G0 F3120 X120.124 Y117.463
G1 F1440 X108.108 Y129.479 E45.71205
G0 F3120 X108.316 Y129.837
G1 F1440 X120.331 Y117.821 E46.39025
G0 F3120 X120.539 Y118.18
G1 F1440 X108.523 Y130.196 E47.06849
G0 F3120 X108.73 Y130.554
G1 F1440 X120.746 Y118.538 E47.74672
G0 F3120 X120.952 Y118.897
G1 F1440 X108.937 Y130.913 E48.42493
G0 F3120 X109.144 Y131.271
G1 F1440 X121.159 Y119.256 E49.10311
G0 F3120 X121.367 Y119.614
G1 F1440 X109.351 Y131.63 E49.78134
G0 F3120 X109.558 Y131.989
G1 F1440 X121.574 Y119.973 E50.45958
G0 F3120 X121.781 Y120.331
G1 F1440 X109.765 Y132.347 E51.13781
G0 F3120 X109.972 Y132.706
G1 F1440 X121.987 Y120.691 E51.81599
G0 F3120 X122.195 Y121.049
G1 F1440 X110.179 Y133.064 E52.4942
G0 F3120 X110.602 Y133.207
G1 F1440 X122.402 Y121.408 E53.16021
G0 F3120 X122.609 Y121.766
G1 F1440 X111.168 Y133.207 E53.80599
G0 F3120 X111.734 Y133.207
G1 F1440 X122.816 Y122.125 E54.43151
G0 F3120 X123.023 Y122.483
G1 F1440 X112.299 Y133.207 E55.03682
G0 F3120 X112.865 Y133.207
G1 F1440 X123.23 Y122.842 E55.62186
G0 F3120 X123.437 Y123.201
G1 F1440 X113.431 Y133.207 E56.18665
G0 F3120 X113.996 Y133.207
G1 F1440 X123.644 Y123.559 E56.73122
G0 F3120 X123.851 Y123.918
G1 F1440 X114.562 Y133.207 E57.25553
G0 F3120 X115.128 Y133.207
G1 F1440 X124.059 Y124.276 E57.75964
G0 F3120 X124.266 Y124.635
G1 F1440 X115.693 Y133.207 E58.24351
G0 F3120 X116.259 Y133.207
G1 F1440 X124.472 Y124.994 E58.70708
G1 X124.542 Y124.924
G0 F3120 X124.357 Y125.029
G0 X123.616 Y126.256
G0 X123.717 Y126.315
G1 F1440 X116.825 Y133.207 E59.0961
G0 F3120 X117.391 Y133.207
G1 F1440 X122.944 Y127.653 E59.40956
G1 X123.014 Y127.583
G0 F3120 X122.891 Y127.512
G0 X122.071 Y128.933
G0 X122.172 Y128.991
G1 F1440 X117.956 Y133.207 E59.64753
G0 F3120 X118.522 Y133.207
G1 F1440 X121.399 Y130.33 E59.80992
G1 X121.469 Y130.26
G0 F3120 X121.346 Y130.189
G0 X120.525 Y131.61
G0 X120.626 Y131.668
G1 F1440 X119.088 Y133.207 E59.89676
G0 F3120 X119.653 Y133.207
G1 F1440 X119.853 Y133.007 E59.90805
G0 F3120 X119.493 Y132.789
;MESH:NONMESH
G0 F600 X119.493 Y132.789 Z0.68
G0 F3120 X105.645 Y125
G0 X105.321 Y125.002
;TIME_ELAPSED:96.739615
;LAYER:2
;TYPE:WALL-INNER
;MESH:??????.stl
G1 F1500 X110.16 Y133.383 E60.2943
G1 X119.224 Y133.388 E60.65607
G1 X119.837 Y133.382 E60.68054
G1 X124.679 Y124.998 E61.06696
G1 X119.84 Y116.617 E61.45321
G1 X110.163 Y116.618 E61.83944
G1 X105.625 Y124.464 E62.2012
G1 X105.321 Y125.002 E62.22586
G0 F4800 X104.862 Y125.001
;TYPE:WALL-OUTER
G1 F1200 X109.502 Y133.052 E62.59674
G1 X109.93 Y133.781 E62.63048
G1 X110.589 Y133.787 E62.65678
G1 X119.227 Y133.788 E63.00155
G1 X120.069 Y133.78 E63.03515
G1 X124.722 Y125.733 E63.40615
G1 X125.138 Y124.999 E63.43983
G1 X120.498 Y116.948 E63.81071
G1 X120.07 Y116.219 E63.84445
G1 X119.411 Y116.213 E63.87075
G1 X110.773 Y116.213 E64.21551
G1 X109.931 Y116.22 E64.24912
G1 X105.277 Y124.267 E64.62014
G1 X104.862 Y125.001 E64.65379
G0 F4800 X104.961 Y125.174
G0 X105.65 Y125.001
G0 X110.576 Y133.087
G0 X110.575 Y133.202
;TYPE:SKIN
G1 F1800 X109.836 Y132.463 E64.6955
G1 X109.766 Y132.393
G0 F4800 X109.889 Y132.324
G0 X111.141 Y133.088
G0 X111.14 Y133.202
G1 F1800 X109.063 Y131.125 E64.81274
G1 X108.993 Y131.055
G0 F4800 X109.116 Y130.985
G0 X108.392 Y129.729
G0 X108.29 Y129.786
G1 F1800 X111.706 Y133.202 E65.00555
G0 F4800 X112.272 Y133.202
G1 F1800 X107.517 Y128.448 E65.27392
G1 X107.447 Y128.378
G0 F4800 X107.571 Y128.308
G0 X106.847 Y127.051
G0 X106.744 Y127.109
G1 F1800 X112.837 Y133.202 E65.61783
G0 F4800 X113.403 Y133.202
G1 F1800 X105.971 Y125.77 E66.03733
G1 X105.901 Y125.7
G0 F4800 X105.614 Y124.847
G1 F1800 X113.969 Y133.202 E66.50892
G0 F4800 X114.535 Y133.202
G1 F1800 X105.819 Y124.486 E67.00089
G0 F4800 X106.026 Y124.128
G1 F1800 X115.1 Y133.201 E67.51303
G0 F4800 X115.665 Y133.201
G1 F1800 X106.233 Y123.769 E68.04542
G0 F4800 X106.44 Y123.411
G1 F1800 X116.231 Y133.201 E68.59804
G0 F4800 X116.797 Y133.201
G1 F1800 X106.647 Y123.052 E69.17092
G0 F4800 X106.855 Y122.694
G1 F1800 X117.362 Y133.201 E69.76398
G0 F4800 X117.928 Y133.201
G1 F1800 X107.063 Y122.336 E70.37724
G0 F4800 X107.27 Y121.978
G1 F1800 X118.494 Y133.201 E71.01075
G0 F4800 X119.059 Y133.201
G1 F1800 X107.477 Y121.619 E71.66449
G0 F4800 X107.684 Y121.261
G1 F1800 X119.625 Y133.201 E72.33846
G0 F4800 X119.901 Y132.912
