;FLAVOR:Marlin
;TIME:4534
;Filament used: 2.23878m
;Layer height: 0.16
;MINX:100.629
;MINY:112.003
;MINZ:0.2
;MAXX:129.371
;MAXY:137.997
;MAXZ:69.96
;Generated with Cura_SteamEngine main
M82 ;absolute extrusion mode
M104 S200 ;Set Hotend Temperature
M140 S60 ;Set Bed Temperature
G28 ;home
G90 ;absolute positioning
G1 X-10 Y-10 F3000 ;Move to corner 
G1 Z0 F1800 ;Go to zero offset
M109 S200 ;Wait for Hotend Temperature
M190 S60 ;Wait for Bed Temperature
G92 E0 ;Zero set extruder position
G1 E20 F200 ;Feed filament to clear nozzle
G92 E0 ;Zero set extruder position
G92 E0
G92 E0
G1 F3600 E-5
;LAYER_COUNT:437
;LAYER:0
M107
G0 F1440 X107.083 Y113.089 Z0.2
G0 X106.002 Y114.593
;TYPE:SKIRT
G1 F3600 E0
G1 F1080 X106.375 Y113.967 E0.02424
G1 X106.698 Y113.503 E0.04304
G1 X107.083 Y113.089 E0.06184
G1 X107.523 Y112.733 E0.08067
G1 X108.008 Y112.443 E0.09946
G1 X108.529 Y112.225 E0.11825
G1 X109.076 Y112.082 E0.13705
G1 X109.753 Y112.014 E0.15968
G1 X110.507 Y112.003 E0.18476
G1 X119.544 Y112.003 E0.48534
G1 X120.245 Y112.013 E0.50865
G1 X120.808 Y112.061 E0.52745
G1 X121.359 Y112.188 E0.54625
G1 X121.887 Y112.392 E0.56508
G1 X122.38 Y112.667 E0.58386
G1 X122.83 Y113.01 E0.60268
G1 X123.227 Y113.412 E0.62147
G1 X123.623 Y113.964 E0.64406
G1 X124.023 Y114.635 E0.67004
G1 X128.539 Y122.459 E0.97051
G1 X128.868 Y123.047 E0.99292
G1 X129.108 Y123.558 E1.0117
G1 X129.274 Y124.099 E1.03052
G1 X129.362 Y124.657 E1.04931
G1 X129.371 Y125.223 E1.06813
G1 X129.3 Y125.783 E1.08691
G1 X129.15 Y126.329 E1.10574
G1 X128.867 Y126.954 E1.12856
G1 X128.5 Y127.609 E1.15353
G1 X124.009 Y135.39 E1.45234
G1 X123.626 Y136.033 E1.47724
G1 X123.303 Y136.497 E1.49604
G1 X122.918 Y136.911 E1.51484
G1 X122.478 Y137.266 E1.53365
G1 X121.993 Y137.556 E1.55244
G1 X121.471 Y137.775 E1.57127
G1 X120.924 Y137.918 E1.59008
G1 X120.247 Y137.986 E1.61271
G1 X119.493 Y137.997 E1.63779
G1 X110.456 Y137.997 E1.93836
G1 X109.755 Y137.987 E1.96168
G1 X109.192 Y137.939 E1.98047
G1 X108.641 Y137.812 E1.99928
G1 X108.113 Y137.608 E2.0181
G1 X107.62 Y137.333 E2.03688
G1 X107.17 Y136.99 E2.0557
G1 X106.773 Y136.588 E2.07449
G1 X106.376 Y136.036 E2.0971
G1 X105.964 Y135.343 E2.12392
G1 X101.463 Y127.544 E2.42341
G1 X101.134 Y126.957 E2.4458
G1 X100.893 Y126.445 E2.46462
G1 X100.726 Y125.905 E2.48342
G1 X100.638 Y125.347 E2.5022
G1 X100.629 Y124.781 E2.52103
G1 X100.7 Y124.22 E2.53984
G1 X100.849 Y123.675 E2.55863
G1 X101.132 Y123.049 E2.58148
G1 X101.5 Y122.391 E2.60656
G1 X106.002 Y114.593 E2.90604
G0 F1440 X106.345 Y114.797
G1 F1080 X106.718 Y114.171 E2.93028
G1 X107.026 Y113.732 E2.94811
G1 X107.396 Y113.344 E2.96595
G1 X107.82 Y113.015 E2.9838
G1 X108.287 Y112.752 E3.00162
G1 X108.789 Y112.562 E3.01947
G1 X109.455 Y112.418 E3.04214
G1 X110.512 Y112.403 E3.0773
G1 X119.538 Y112.403 E3.3775
G1 X120.239 Y112.413 E3.40082
G1 X120.774 Y112.461 E3.41869
G1 X121.295 Y112.587 E3.43651
G1 X121.791 Y112.79 E3.45434
G1 X122.252 Y113.064 E3.47218
G1 X122.668 Y113.403 E3.49002
G1 X123.122 Y113.903 E3.51249
G1 X123.677 Y114.835 E3.54857
G1 X128.19 Y122.654 E3.84884
G1 X128.519 Y123.242 E3.87125
G1 X128.745 Y123.728 E3.88907
G1 X128.896 Y124.243 E3.90692
G1 X128.97 Y124.774 E3.92476
G1 X128.964 Y125.31 E3.94258
G1 X128.878 Y125.84 E3.96044
G1 X128.669 Y126.489 E3.98312
G1 X128.154 Y127.409 E4.01819
G1 X123.665 Y135.185 E4.31682
G1 X123.282 Y135.828 E4.34171
G1 X122.974 Y136.267 E4.35955
G1 X122.604 Y136.656 E4.37741
G1 X122.181 Y136.985 E4.39523
G1 X121.713 Y137.247 E4.41307
G1 X121.212 Y137.438 E4.4309
G1 X120.546 Y137.582 E4.45356
G1 X119.488 Y137.597 E4.48876
G1 X110.462 Y137.597 E4.78896
G1 X109.761 Y137.587 E4.81228
G1 X109.226 Y137.539 E4.83015
G1 X108.705 Y137.413 E4.84797
G1 X108.209 Y137.21 E4.8658
G1 X107.748 Y136.936 E4.88364
G1 X107.332 Y136.597 E4.90149
G1 X106.878 Y136.097 E4.92395
G1 X106.31 Y135.143 E4.96088
G1 X101.812 Y127.348 E5.26021
G1 X101.483 Y126.761 E5.28259
G1 X101.256 Y126.275 E5.30043
G1 X101.104 Y125.761 E5.31826
G1 X101.03 Y125.23 E5.33609
G1 X101.036 Y124.693 E5.35395
G1 X101.122 Y124.164 E5.37178
G1 X101.328 Y123.517 E5.39436
G1 X101.846 Y122.591 E5.42965
G1 X106.345 Y114.797 E5.72897
G0 F1440 X106.689 Y115.002
G1 F1080 X107.062 Y114.376 E5.7532
G1 X107.354 Y113.964 E5.77
G1 X107.708 Y113.602 E5.78684
G1 X108.114 Y113.301 E5.80365
G1 X108.562 Y113.068 E5.82045
G1 X109.042 Y112.908 E5.83727
G1 X109.764 Y112.814 E5.86149
G1 X110.518 Y112.803 E5.88657
G1 X119.533 Y112.803 E6.18641
G1 X120.234 Y112.813 E6.20973
G1 X120.737 Y112.86 E6.22653
G1 X121.227 Y112.986 E6.24336
G1 X121.69 Y113.188 E6.26016
G1 X122.117 Y113.46 E6.277
G1 X122.495 Y113.795 E6.2938
G1 X122.936 Y114.374 E6.31801
G1 X123.33 Y115.035 E6.3436
G1 X127.841 Y122.849 E6.64369
G1 X128.17 Y123.437 E6.6661
G1 X128.381 Y123.897 E6.68294
G1 X128.517 Y124.384 E6.69975
G1 X128.575 Y124.886 E6.71656
G1 X128.553 Y125.391 E6.73337
G1 X128.452 Y125.886 E6.75018
G1 X128.169 Y126.563 E6.77458
G1 X127.807 Y127.209 E6.79921
G1 X123.321 Y134.981 E7.09768
G1 X122.938 Y135.624 E7.12257
G1 X122.646 Y136.036 E7.13937
G1 X122.292 Y136.398 E7.15621
G1 X121.886 Y136.699 E7.17302
G1 X121.438 Y136.932 E7.18981
G1 X120.958 Y137.092 E7.20664
G1 X120.236 Y137.186 E7.23086
G1 X119.482 Y137.197 E7.25594
G1 X110.467 Y137.197 E7.55578
G1 X109.766 Y137.187 E7.5791
G1 X109.263 Y137.14 E7.5959
G1 X108.773 Y137.014 E7.61273
G1 X108.31 Y136.812 E7.62953
G1 X107.883 Y136.54 E7.64637
G1 X107.505 Y136.205 E7.66317
G1 X107.064 Y135.626 E7.68737
G1 X106.657 Y134.943 E7.71382
G1 X102.161 Y127.153 E8.01297
G1 X101.832 Y126.566 E8.03535
G1 X101.62 Y126.106 E8.0522
G1 X101.483 Y125.62 E8.06899
G1 X101.425 Y125.117 E8.08583
G1 X101.447 Y124.612 E8.10265
G1 X101.548 Y124.117 E8.11945
G1 X101.83 Y123.44 E8.14384
G1 X102.193 Y122.791 E8.16857
G1 X106.689 Y115.002 E8.4677
G1 F3600 E3.4677
;MESH:??????.stl
G0 F1440 X108.883 Y116.272
G0 X109.823 Y116.814
G0 X105.769 Y125.001
;TYPE:WALL-INNER
G1 F3600 E8.4677
G1 F1080 X110.385 Y132.996 E8.77475
G1 X119.615 Y132.996 E9.08174
G1 X124.231 Y125.001 E9.3888
G1 X119.615 Y117.004 E9.69591
G1 X110.385 Y117.004 E10.0029
G1 X105.769 Y125.001 E10.31001
G0 F1440 X105.307 Y125.001
G1 F1080 X110.154 Y133.396 E10.63243
G1 X119.846 Y133.396 E10.95478
G1 X124.693 Y125.001 E11.2772
G1 X119.846 Y116.604 E11.59967
G1 X110.154 Y116.604 E11.92203
G1 X105.307 Y125.001 E12.2445
G0 F1440 X104.845 Y125.001
;TYPE:WALL-OUTER
G1 F1080 X109.923 Y133.796 E12.58228
G1 X120.077 Y133.796 E12.92001
G1 X125.155 Y125.001 E13.25779
G1 X120.077 Y116.204 E13.59562
G1 X109.923 Y116.204 E13.93335
G1 X104.845 Y125.001 E14.27119
G0 F1440 X104.945 Y125.174
G0 X105.636 Y125
G0 X110.753 Y132.815
;TYPE:SKIN
G1 F1080 X110.124 Y132.185 E14.3008
G1 X110.054 Y132.115
G0 F1440 X111.319 Y132.815
G1 F1080 X109.352 Y130.848 E14.39332
G1 X109.282 Y130.778
G0 F1440 X108.58 Y129.51
G1 F1080 X111.884 Y132.815 E14.54875
G0 F1440 X112.45 Y132.815
G1 F1080 X107.808 Y128.173 E14.7671
G1 X107.738 Y128.103
G0 F1440 X107.036 Y126.835
G1 F1080 X113.016 Y132.815 E15.04838
G0 F1440 X113.581 Y132.815
G1 F1080 X106.264 Y125.498 E15.39255
G0 F1440 X106.107 Y124.774
G1 F1080 X114.147 Y132.815 E15.77075
G0 F1440 X114.713 Y132.815
G1 F1080 X106.314 Y124.416 E16.16581
G0 F1440 X106.521 Y124.057
G1 F1080 X115.278 Y132.815 E16.57774
G0 F1440 X115.844 Y132.815
G1 F1080 X106.727 Y123.698 E17.00657
G0 F1440 X106.935 Y123.339
G1 F1080 X116.41 Y132.815 E17.45227
G0 F1440 X116.975 Y132.815
G1 F1080 X107.142 Y122.981 E17.91481
G0 F1440 X107.348 Y122.622
G1 F1080 X117.541 Y132.815 E18.39426
G0 F1440 X118.107 Y132.815
G1 F1080 X107.555 Y122.263 E18.89059
G0 F1440 X107.763 Y121.905
G1 F1080 X118.673 Y132.815 E19.40376
G0 F1440 X119.238 Y132.815
G1 F1080 X107.97 Y121.546 E19.9338
G0 F1440 X108.176 Y121.187
G1 F1080 X119.619 Y132.629 E20.47202
G0 F1440 X119.826 Y132.271
G1 F1080 X108.383 Y120.828 E21.01026
G0 F1440 X108.591 Y120.47
G1 F1080 X120.033 Y131.912 E21.54846
G0 F1440 X120.239 Y131.553
G1 F1080 X108.797 Y120.111 E22.08665
G0 F1440 X109.004 Y119.752
G1 F1080 X120.447 Y131.195 E22.6249
G0 F1440 X120.654 Y130.836
G1 F1080 X109.211 Y119.394 E23.16312
G0 F1440 X109.419 Y119.035
G1 F1080 X120.861 Y130.478 E23.70134
G0 F1440 X121.068 Y130.119
G1 F1080 X109.625 Y118.676 E24.23958
G0 F1440 X109.832 Y118.318
G1 F1080 X121.275 Y129.76 E24.7778
G0 F1440 X121.482 Y129.401
G1 F1080 X110.039 Y117.959 E25.31602
G0 F1440 X110.246 Y117.6
G1 F1080 X121.689 Y129.043 E25.85427
G0 F1440 X121.896 Y128.684
G1 F1080 X110.453 Y117.241 E26.39251
G0 F1440 X110.961 Y117.183
G1 F1080 X122.103 Y128.326 E26.91662
G0 F1440 X122.31 Y127.967
G1 F1080 X111.527 Y117.183 E27.42384
G0 F1440 X112.092 Y117.183
G1 F1080 X122.517 Y127.608 E27.9142
G0 F1440 X122.724 Y127.25
G1 F1080 X112.658 Y117.183 E28.3877
G0 F1440 X113.224 Y117.183
G1 F1080 X122.931 Y126.891 E28.84431
G0 F1440 X123.139 Y126.533
G1 F1080 X113.789 Y117.183 E29.2841
G0 F1440 X114.355 Y117.183
G1 F1080 X123.345 Y126.174 E29.70699
G0 F1440 X123.552 Y125.815
G1 F1080 X114.921 Y117.183 E30.11299
G0 F1440 X115.486 Y117.183
G1 F1080 X123.759 Y125.457 E30.50215
G0 F1440 X123.967 Y125.098
G1 F1080 X116.052 Y117.183 E30.87445
G0 F1440 X116.618 Y117.183
G1 F1080 X123.461 Y124.027 E31.19634
G1 X123.531 Y124.097
G0 F1440 X122.689 Y122.689
G1 F1080 X117.183 Y117.183 E31.45533
G0 F1440 X117.749 Y117.183
G1 F1080 X121.917 Y121.351 E31.65138
G1 X121.987 Y121.421
G0 F1440 X121.145 Y120.013
G1 F1080 X118.315 Y117.183 E31.78449
G0 F1440 X118.88 Y117.183
G1 F1080 X120.372 Y118.675 E31.85467
G1 X120.442 Y118.745
G0 F1440 X119.6 Y117.338
G1 F1080 X119.446 Y117.183 E31.86194
M104 S200
G0 F1440 X119.446 Y117.203
;MESH:NONMESH
G0 F600 X119.446 Y117.203 Z0.36
G0 F1440 X105.775 Y125.001
;TIME_ELAPSED:63.916801
;LAYER:1
M106 S255
;TYPE:WALL-INNER
;MESH:??????.stl
G1 F1140 X110.389 Y132.99 E32.10742
G1 X119.611 Y132.99 E32.3528
G1 X124.225 Y125.001 E32.59828
G1 X119.611 Y117.011 E32.84378
G1 X110.389 Y117.011 E33.08916
G1 X105.775 Y125.001 E33.33466
G0 F2820 X105.313 Y125.001
G1 F1140 X110.158 Y133.39 E33.59243
G1 X119.842 Y133.39 E33.8501
G1 X124.687 Y125.001 E34.10787
G1 X119.842 Y116.611 E34.36566
G1 X110.158 Y116.611 E34.62333
G1 X105.313 Y125.001 E34.88112
G0 F2820 X104.851 Y125.001
;TYPE:WALL-OUTER
G1 F990 X109.927 Y133.79 E35.15118
G1 X120.073 Y133.79 E35.42115
G1 X125.149 Y125.001 E35.69121
G1 X120.073 Y116.211 E35.96129
G1 X109.927 Y116.211 E36.23125
G1 X104.851 Y125.001 E36.50134
G0 F2820 X104.951 Y125.174
G0 X105.643 Y125
G0 X110.781 Y117.19
;TYPE:SKIN
G1 F1290 X110.098 Y117.872 E36.52702
G1 X110.028 Y117.942
G0 F2820 X111.346 Y117.19
G1 F1290 X109.325 Y119.211 E36.60307
G1 X109.255 Y119.281
G0 F2820 X108.552 Y120.549
G1 F1290 X111.912 Y117.19 E36.72948
G0 F2820 X112.478 Y117.19
G1 F1290 X107.78 Y121.888 E36.90627
G1 X107.71 Y121.958
G0 F2820 X107.007 Y123.226
G1 F1290 X113.043 Y117.19 E37.1334
G0 F2820 X113.609 Y117.19
G1 F1290 X106.235 Y124.564 E37.41088
G0 F2820 X106.123 Y125.242
G1 F1290 X114.175 Y117.19 E37.71387
G0 F2820 X114.74 Y117.19
G1 F1290 X106.33 Y125.6 E38.03034
G0 F2820 X106.537 Y125.959
G1 F1290 X115.306 Y117.19 E38.36031
G0 F2820 X115.872 Y117.19
G1 F1290 X106.744 Y126.317 E38.70378
G0 F2820 X106.951 Y126.676
G1 F1290 X116.437 Y117.19 E39.06073
G0 F2820 X117.003 Y117.19
G1 F1290 X107.158 Y127.035 E39.43119
G0 F2820 X107.365 Y127.393
G1 F1290 X117.569 Y117.19 E39.81515
G0 F2820 X118.134 Y117.19
G1 F1290 X107.572 Y127.752 E40.21259
G0 F2820 X107.78 Y128.11
G1 F1290 X118.7 Y117.19 E40.6235
G0 F2820 X119.266 Y117.19
G1 F1290 X107.986 Y128.469 E41.04795
G0 F2820 X108.193 Y128.828
G1 F1290 X119.625 Y117.396 E41.47813
G0 F2820 X119.832 Y117.755
G1 F1290 X108.4 Y129.186 E41.90829
G0 F2820 X108.608 Y129.545
G1 F1290 X120.039 Y118.113 E42.33845
G0 F2820 X120.247 Y118.472
G1 F1290 X108.815 Y129.904 E42.76863
G0 F2820 X109.022 Y130.262
G1 F1290 X120.454 Y118.83 E43.19881
G0 F2820 X120.661 Y119.189
G1 F1290 X109.228 Y130.621 E43.62901
G0 F2820 X109.436 Y130.98
G1 F1290 X120.867 Y119.548 E44.05917
G0 F2820 X121.075 Y119.906
G1 F1290 X109.643 Y131.338 E44.48936
G0 F2820 X109.85 Y131.697
G1 F1290 X121.282 Y120.265 E44.91954
G0 F2820 X121.489 Y120.623
G1 F1290 X110.057 Y132.055 E45.34972
G0 F2820 X110.264 Y132.414
G1 F1290 X121.696 Y120.982 E45.7799
G0 F2820 X121.903 Y121.34
G1 F1290 X110.471 Y132.773 E46.2101
G0 F2820 X111 Y132.809
G1 F1290 X122.11 Y121.699 E46.62816
G0 F2820 X122.317 Y122.058
G1 F1290 X111.566 Y132.809 E47.03272
G0 F2820 X112.132 Y132.809
G1 F1290 X122.524 Y122.417 E47.42376
G0 F2820 X122.731 Y122.775
G1 F1290 X112.697 Y132.809 E47.80134
G0 F2820 X113.263 Y132.809
G1 F1290 X122.938 Y123.134 E48.16541
G0 F2820 X123.146 Y123.492
G1 F1290 X113.829 Y132.809 E48.516
G0 F2820 X114.395 Y132.809
G1 F1290 X123.353 Y123.851 E48.85309
G0 F2820 X123.56 Y124.209
G1 F1290 X114.96 Y132.809 E49.1767
G0 F2820 X115.526 Y132.809
G1 F1290 X123.767 Y124.568 E49.4868
G0 F2820 X123.974 Y124.927
G1 F1290 X116.092 Y132.809 E49.7834
G0 F2820 X116.657 Y132.809
G1 F1290 X123.402 Y126.065 E50.03719
G1 X123.472 Y125.995
G0 F2820 X122.629 Y127.403
G1 F1290 X117.223 Y132.809 E50.24062
G0 F2820 X117.789 Y132.809
G1 F1290 X121.856 Y128.742 E50.39366
G1 X121.926 Y128.672
G0 F2820 X121.082 Y130.081
G1 F1290 X118.354 Y132.809 E50.49631
G0 F2820 X118.92 Y132.809
G1 F1290 X120.309 Y131.42 E50.54858
G1 X120.379 Y131.35
G0 F2820 X120.342 Y131.327
;MESH:NONMESH
G0 F600 X120.342 Y131.327 Z0.52
G0 F2820 X105.779 Y125.006
;TIME_ELAPSED:100.305666
;LAYER:2
;TYPE:WALL-INNER
;MESH:??????.stl
G1 F1200 X110.391 Y132.987 E50.79385
G1 X119.61 Y132.985 E51.03915
G1 X124.22 Y124.994 E51.28462
G1 X119.609 Y117.013 E51.52987
G1 X110.39 Y117.015 E51.77517
G1 X105.779 Y125.006 E52.02065
G0 F4200 X105.318 Y125.004
G1 F1200 X110.16 Y133.386 E52.27822
G1 X111.055 Y133.391 E52.30204
G1 X119.841 Y133.385 E52.53581
G1 X124.681 Y124.996 E52.79352
G1 X119.84 Y116.614 E53.05107
G1 X110.159 Y116.615 E53.30866
G1 X105.318 Y125.004 E53.56638
G0 F4200 X104.858 Y125.002
;TYPE:WALL-OUTER
G1 F900 X105.146 Y125.512 E53.58196
G1 X109.928 Y133.785 E53.83622
G1 X111.055 Y133.791 E53.86621
G1 X120.072 Y133.785 E54.10613
G1 X125.142 Y124.998 E54.37607
G1 X124.854 Y124.489 E54.39163
G1 X120.072 Y116.215 E54.64591
G1 X109.928 Y116.215 E54.91582
G1 X104.858 Y125.002 E55.18575
G0 F4200 X104.956 Y125.176
G0 X105.647 Y125.004
G0 X110.744 Y132.806
;TYPE:SKIN
G1 F1500 X110.151 Y132.213 E55.20807
G1 X110.081 Y132.143
G0 F4200 X111.31 Y132.806
G1 F1500 X109.375 Y130.872 E55.28086
G1 X109.305 Y130.802
G0 F4200 X108.6 Y129.53
G1 F1500 X111.876 Y132.806 E55.40414
G0 F4200 X112.441 Y132.805
G1 F1500 X107.824 Y128.189 E55.57785
G1 X107.754 Y128.119
G0 F4200 X107.048 Y126.847
G1 F1500 X113.006 Y132.805 E55.80205
G0 F4200 X113.572 Y132.805
G1 F1500 X106.272 Y125.505 E56.07675
G0 F4200 X106.113 Y124.781
G1 F1500 X114.137 Y132.805 E56.37869
G0 F4200 X114.703 Y132.805
G1 F1500 X106.32 Y124.422 E56.69413
G0 F4200 X106.527 Y124.064
G1 F1500 X115.269 Y132.805 E57.02307
G0 F4200 X115.834 Y132.805
G1 F1500 X106.734 Y123.705 E57.3655
G0 F4200 X106.941 Y123.346
G1 F1500 X116.399 Y132.804 E57.7214
G0 F4200 X116.965 Y132.804
G1 F1500 X107.148 Y122.987 E58.09081
G0 F4200 X107.355 Y122.629
G1 F1500 X117.531 Y132.804 E58.47371
G0 F4200 X118.096 Y132.803
G1 F1500 X107.562 Y122.27 E58.87008
G0 F4200 X107.77 Y121.912
G1 F1500 X118.661 Y132.803 E59.2799
G0 F4200 X119.227 Y132.803
G1 F1500 X107.976 Y121.553 E59.70326
G0 F4200 X108.183 Y121.194
G1 F1500 X119.611 Y132.622 E60.13329
G0 F4200 X119.818 Y132.263
G1 F1500 X108.39 Y120.836 E60.5633
G0 F4200 X108.598 Y120.477
G1 F1500 X120.025 Y131.905 E60.99331
G0 F4200 X120.232 Y131.545
G1 F1500 X108.805 Y120.119 E61.42328
G0 F4200 X109.011 Y119.759
G1 F1500 X120.439 Y131.187 E61.85331
G0 F4200 X120.646 Y130.828
G1 F1500 X109.219 Y119.401 E62.28331
G0 F4200 X109.426 Y119.042
G1 F1500 X120.853 Y130.47 E62.71332
G0 F4200 X121.06 Y130.111
G1 F1500 X109.633 Y118.684 E63.14331
G0 F4200 X109.84 Y118.325
G1 F1500 X121.267 Y129.752 E63.5733
G0 F4200 X121.474 Y129.394
G1 F1500 X110.047 Y117.967 E64.0033
G0 F4200 X110.254 Y117.608
G1 F1500 X121.681 Y129.035 E64.43329
G0 F4200 X121.888 Y128.677
